X: 1
T: THE MORRIS REEL (SOLDIER'S JOY)
S: CJS(MSS)
O: Headington
P: A.(A2B2)4.A
B: Morris Ring
Z: 2005 John Chambers <jc@trillian.mit.edu>
M: 4/4
L: 1/8
K: G
P: A
Bc |\
dBGB dBGB | d2g2 g2e2 | dBGB dBGB       | c2A2 A2Bc |
dBGB dBGB | d2g2 g2e2 | dBGB cA[dF][FD] | G2G2 G2  ||
P: B
|: dc |\
BGDG BdcB | AF[dE]F A[dB]cA | BGDG BdcB | AGFe      dcBA   |
BGDG BdcB | AFdF    AdcA    | BdBG cAdF | G2[g2G2] [g2G2] :|
